X: 100
T: Traditional Winston
C: Trad.
O: Cape Breton
S: Ashely MacIsaak Close to the Floor
Z: transcribed by J. Rooney
R: reel
M: 6/8
L: 1/8
Z: Contributed 20010620142057 by Jeff Rooney jeffr@alcatel.com
K: D
DFA DFA|DGB DGB|Ace ABc|dfe dBA|
DFA DFA |DGB DGB|Ace ABc|1 dfe d3:|2 dfe d2A||
dfa {b}afd| e3 ecA|dfa {b}afd|gab {b}a2A|
dfa afd |e3 efg|afd cBA|GFE D3:|

